assets/images/receipt-plus.svg

<svg xmlns="http://www.w3.org/2000/svg" xmlns:xlink="http://www.w3.org/1999/xlink" id="Layer_1" x="0" y="0" version="1.1" viewBox="0 0 20 20" style="enable-background:new 0 0 20 20" xml:space="preserve"><style type="text/css">.st0{fill-rule:evenodd;clip-rule:evenodd}</style><path d="M3 1.36363V18.6362C3 19.0084 3.45781 19.1817 3.70103 18.9016L4.44897 18.0403C4.60833 17.8568 4.89167 17.8568 5.05103 18.0403L6.19897 19.3622C6.35833 19.5457 6.64167 19.5457 6.80103 19.3622L7.94897 18.0403C8.10833 17.8568 8.39167 17.8568 8.55103 18.0403L9.69897 19.3622C9.85833 19.5457 10.1417 19.5457 10.301 19.3622L11.449 18.0403C11.6083 17.8568 11.8917 17.8568 12.051 18.0403L12.3204 18.3506C12.1155 17.9447 12 17.4859 12 17.0001V16.5001H11.5C9.84315 16.5001 8.5 15.1569 8.5 13.5001C8.5 11.8432 9.84315 10.5001 11.5 10.5001H12V10.0001C12 8.34323 13.3431 7.00008 15 7.00008C15.7684 7.00008 16.4692 7.28894 17 7.76398V1.36363C17 0.991488 16.5422 0.818169 16.299 1.09823L15.551 1.95949C15.3917 2.143 15.1083 2.143 14.949 1.95949L13.801 0.637631C13.6417 0.454123 13.3583 0.454123 13.199 0.637632L12.051 1.95949C11.8917 2.143 11.6083 2.143 11.449 1.95949L10.301 0.637631C10.1417 0.454123 9.85833 0.454123 9.69897 0.637632L8.55103 1.95949C8.39167 2.143 8.10833 2.143 7.94897 1.95949L6.80103 0.637631C6.64167 0.454123 6.35833 0.454123 6.19897 0.637632L5.05103 1.95949C4.89167 2.143 4.60833 2.143 4.44897 1.95949L3.70103 1.09823C3.45781 0.818169 3 0.991488 3 1.36363Z" fill="#8B9C8F"/><path d="M15 9C15.5523 9 16 9.44771 16 10V12.5H18.5C19.0523 12.5 19.5 12.9477 19.5 13.5C19.5 14.0523 19.0523 14.5 18.5 14.5H16V17C16 17.5523 15.5523 18 15 18C14.4477 18 14 17.5523 14 17V14.5H11.5C10.9477 14.5 10.5 14.0523 10.5 13.5C10.5 12.9477 10.9477 12.5 11.5 12.5H14V10C14 9.44771 14.4477 9 15 9Z" fill="#8B9C8F"/></svg>

<?xml version="1.0" encoding="utf-8"?>
<!-- Generator: Adobe Illustrator 28.3.0, SVG Export Plug-In . SVG Version: 6.00 Build 0)  -->
<svg version="1.1" id="Layer_1" xmlns="http://www.w3.org/2000/svg" xmlns:xlink="http://www.w3.org/1999/xlink" x="0px" y="0px"
	 viewBox="0 0 20 20" style="enable-background:new 0 0 20 20;" xml:space="preserve">
<path d="M3,1.4v17.3c0,0.4,0.5,0.5,0.7,0.3L4.4,18c0.2-0.2,0.4-0.2,0.6,0l1.1,1.3c0.2,0.2,0.4,0.2,0.6,0L7.9,18
	c0.2-0.2,0.4-0.2,0.6,0l1.1,1.3c0.2,0.2,0.4,0.2,0.6,0l1.1-1.3c0.2-0.2,0.4-0.2,0.6,0l0.3,0.3C12.1,17.9,12,17.5,12,17v-0.5h-0.5
	c-1.7,0-3-1.3-3-3c0-1.7,1.3-3,3-3H12V10c0-1.7,1.3-3,3-3c0.8,0,1.5,0.3,2,0.8V1.4c0-0.4-0.5-0.5-0.7-0.3L15.6,2
	c-0.2,0.2-0.4,0.2-0.6,0l-1.1-1.3c-0.2-0.2-0.4-0.2-0.6,0L12.1,2c-0.2,0.2-0.4,0.2-0.6,0l-1.1-1.3c-0.2-0.2-0.4-0.2-0.6,0L8.6,2
	C8.4,2.1,8.1,2.1,7.9,2L6.8,0.6c-0.2-0.2-0.4-0.2-0.6,0L5.1,2C4.9,2.1,4.6,2.1,4.4,2L3.7,1.1C3.5,0.8,3,1,3,1.4z"/>
<path d="M15,9c0.6,0,1,0.4,1,1v2.5h2.5c0.6,0,1,0.4,1,1s-0.4,1-1,1H16V17c0,0.6-0.4,1-1,1s-1-0.4-1-1v-2.5h-2.5c-0.6,0-1-0.4-1-1
	s0.4-1,1-1H14V10C14,9.4,14.4,9,15,9z"/>
</svg>
